.local/share/icons/Gruvbox-Plus-Dark/apps/16/blender.svg

<svg xmlns="http://www.w3.org/2000/svg" width="16" height="16" version="1.1">
<defs>
  <style id="current-color-scheme" type="text/css">
   .ColorScheme-Text { color:#ebdbb2; } .ColorScheme-Highlight { color:#458588; }
  </style>
  <linearGradient id="arrongin" x1="0%" x2="0%" y1="0%" y2="100%">
   <stop offset="0%" style="stop-color:#d79921; stop-opacity:1"/>
   <stop offset="100%" style="stop-color:#b57614; stop-opacity:1"/>
  </linearGradient>
  <linearGradient id="aurora" x1="0%" x2="0%" y1="0%" y2="100%">
   <stop offset="0%" style="stop-color:#83a598; stop-opacity:1"/>
   <stop offset="100%" style="stop-color:#b16286; stop-opacity:1"/>
  </linearGradient>
  <linearGradient id="fitdance" x1="0%" x2="0%" y1="0%" y2="100%">
   <stop offset="0%" style="stop-color:#8ec07c; stop-opacity:1"/>
   <stop offset="100%" style="stop-color:#458588; stop-opacity:1"/>
  </linearGradient>
  <linearGradient id="oomox" x1="0%" x2="0%" y1="0%" y2="100%">
   <stop offset="0%" style="stop-color:#458588; stop-opacity:1"/>
   <stop offset="100%" style="stop-color:#928374; stop-opacity:1"/>
  </linearGradient>
  <linearGradient id="rainblue" x1="0%" x2="0%" y1="0%" y2="100%">
   <stop offset="0%" style="stop-color:#b8bb26; stop-opacity:1"/>
   <stop offset="100%" style="stop-color:#076678; stop-opacity:1"/>
  </linearGradient>
  <linearGradient id="sunrise" x1="0%" x2="0%" y1="0%" y2="100%">
   <stop offset="0%" style="stop-color: #fe8019; stop-opacity:1"/>
   <stop offset="100%" style="stop-color: #fabd2f; stop-opacity:1"/>
  </linearGradient>
  <linearGradient id="telinkrin" x1="0%" x2="0%" y1="0%" y2="100%">
   <stop offset="0%" style="stop-color: #83a598; stop-opacity:1"/>
   <stop offset="100%" style="stop-color: #83a598; stop-opacity:1"/>
  </linearGradient>
  <linearGradient id="60spsycho" x1="0%" x2="0%" y1="0%" y2="100%">
   <stop offset="0%" style="stop-color: #fb4934; stop-opacity:1"/>
   <stop offset="25%" style="stop-color: #fabd2f; stop-opacity:1"/>
   <stop offset="50%" style="stop-color: #fe8019; stop-opacity:1"/>
   <stop offset="100%" style="stop-color: #689d6a; stop-opacity:1"/>
  </linearGradient>
  <linearGradient id="90ssummer" x1="0%" x2="0%" y1="0%" y2="100%">
   <stop offset="0%" style="stop-color: #b16286; stop-opacity:1"/>
   <stop offset="20%" style="stop-color: #8ec07c; stop-opacity:1"/>
   <stop offset="50%" style="stop-color: #fabd2f; stop-opacity:1"/>
   <stop offset="100%" style="stop-color: #458588; stop-opacity:1"/>
  </linearGradient>
  <linearGradient id="cyberneon" x1="0%" x2="0%" y1="0%" y2="100%">
    <stop offset="0" style="stop-color:#83a598; stop-opacity:1"/>
    <stop offset="1" style="stop-color:#b16286; stop-opacity:1"/>
  </linearGradient>
 </defs>
 <path style="fill:currentColor" class="ColorScheme-Text" d="M 7.171875 0.51367188 C 6.916255 0.51367188 6.6607138 0.61267375 6.4648438 0.80859375 C 6.0731037 1.2003238 6.0731038 1.8308562 6.4648438 2.2226562 L 9.2421875 5 L 2 5 C 1.446 5 1 5.446 1 6 C 1 6.554 1.446 7 2 7 C 3.2758 6.997 4.2728875 6.99917 5.9296875 7 L 0.80664062 12.121094 C 0.41490063 12.512834 0.41490063 13.143356 0.80664062 13.535156 C 1.1983806 13.926896 1.8309562 13.926896 2.2226562 13.535156 C 3.1397362 12.613116 3.8684875 11.888125 5.0546875 10.703125 A 5 5 0 0 0 10 15 A 5 5 0 0 0 15 10 A 5 5 0 0 0 13.533203 6.4667969 L 13.535156 6.4648438 C 13.535156 6.4648438 9.7105062 2.6500938 7.8789062 0.80859375 C 7.6833063 0.61267375 7.427475 0.51367188 7.171875 0.51367188 z M 10 7 A 3 3 0 0 1 13 10 A 3 3 0 0 1 10 13 A 3 3 0 0 1 7 10 A 3 3 0 0 1 10 7 z"/>
 <circle cx="10" cy="10" r="2" style="fill:currentColor" class="ColorScheme-Text"/>
</svg>

<svg width="16" height="16" version="1.1" xmlns="http://www.w3.org/2000/svg">
  <defs>
    <style id="current-color-scheme" type="text/css">.ColorScheme-Text { color:#ebdbb2; } .ColorScheme-Highlight { color:#458588; }</style>
  </defs>
  <path class="ColorScheme-Text" d="m6.95 2.714 2.291 2.287h-7.241c-0.554 0-1 0.4464-1 1 0 0.554 0.4464 1 1 1 1.276-3e-3 2.272-8.3e-4 3.929 0l-4.634 4.63c-0.3917 0.3917-0.3917 1.023 0 1.415 0.3917 0.3917 1.025 0.3917 1.417 0 0.9171-0.922 1.156-1.157 2.342-2.342 0.3498 2.463 2.457 4.294 4.945 4.297 2.761 0 5-2.239 5-5-0.0013-1.326-0.529-2.596-1.467-3.533l2e-3 -0.00202s-3.337-3.325-5.169-5.167c-0.1956-0.1959-0.4517-0.2951-0.7075-0.2951-0.8648 3.38e-5 -1.348 1.069-0.7075 1.71zm3.049 4.285c1.658-5.526e-4 3.002 1.343 3.001 3.001-5.52e-4 1.657-1.344 3-3.001 2.999-1.656-5.52e-4 -2.998-1.343-2.999-2.999-5.524e-4 -1.657 1.342-3 2.999-3.001zm0 1c-1.105 5.521e-4 -2 0.8964-1.999 2.001-5.524e-4 1.105 0.8944 2 1.999 2.001 1.105 5.53e-4 2.002-0.8956 2.001-2.001 5.53e-4 -1.105-0.8956-2.002-2.001-2.001z" fill="currentColor"/>
</svg>
